X: 1723
T: Moonan Flat 1st Set Tune
B: australian traditional tunes wiki
M:2/4
L:1/8
R: Set Tune
Q: 1/4=100
K:D
V:1 
|:"D"A>A AA|BA FA|"D"dc/d/ ed|"G"c2B2|"A7"gf a>g|
fe dc|1"G"Bg Bc|"A7"B2A2:|2"G"Bg "A7"Bc|"D"d2 d2||
||"D"F>F FF|A2A2|AA/d/ FB|"A7"A2G2|
E2 EF|"Em"G2 GA|"A7"c>B AG|"D"F2F2|
F>F FG|A2 A>B|Ad FB|"A7"A2G2|
E2 EF|"Em"G2 GA|"A7"cA Bc|"D"d2d2||
% abcbook-tune_id 6342d53a2e1a6cea1fe8e6ca


% abcbook-boost 0
% abcbook-tablature 
% abcbook-transpose 
% abcbook-lastupdated 1665324380140
% abcbook-soundfonts 
% abcbook-repeats 1
% NFF Book 2006

